X: 1
T:Hexham Races. JMT110
M:6/8
L:1/8
S:J.Moore,Tyneside,1841.(78b)
R:Jig
O:England
A:Northumbria
Z:C.G.P
K:G
D|GAB gdB|d2dd2B|GAB gdB|A2AA2B|GAB gdB|!def gfe|dcB cBA|G2GG2:|
|:a/g/|g2e edB|d2d def|!g2e edB|A2A ABd|g2e edB|def gfe|dcB cBA|G2GG2:|]
